icons/papertrail-filled.svg

<svg width="256" height="256" viewBox="0 0 256 256" fill="none" xmlns="http://www.w3.org/2000/svg">
    <g clip-path="url(#clip0_42_4)">
        <path d="M196 0H60C26.8629 0 0 26.8629 0 60V196C0 229.137 26.8629 256 60 256H196C229.137 256 256 229.137 256 196V60C256 26.8629 229.137 0 196 0Z" fill="#03498F"/>
        <path d="M121.366 128.154L123.394 127.591C138.402 123.103 153.126 117.712 167.484 111.447C182.045 105.734 195.708 97.9536 208.052 88.3453C221.166 77.9222 231.037 63.976 236.506 48.1421C237.68 45.539 238.54 42.8059 239.07 40C219.349 66.9336 141.171 69.7228 141.171 69.7228L159.624 52.8188C105.92 52.9962 53.6118 69.937 10 101.277C39.4986 104.447 67.2431 116.851 89.2772 136.719C99.87 133.451 110.66 131.084 121.337 128.267M244 125.506C244 125.506 171.85 119.871 96.94 144.128C106.937 154.565 115.279 166.47 121.675 179.429C161.117 157.482 215.659 129.45 244 125.506ZM126.606 190.67C131.275 202.647 134.28 215.207 135.536 228L204.192 157.285L126.606 190.67Z" fill="#F99D1E"/>
    </g>
    <defs>
        <clipPath id="clip0_42_4">
            <rect width="256" height="256" fill="white"/>
        </clipPath>
    </defs>
</svg>

<svg xmlns="http://www.w3.org/2000/svg" width="256" height="256" fill="none"><g clip-path="url(#clip0_42_4)"><path fill="#03498F" d="M196 0H60C26.863 0 0 26.863 0 60v136c0 33.137 26.863 60 60 60h136c33.137 0 60-26.863 60-60V60c0-33.137-26.863-60-60-60"/><path fill="#F99D1E" d="m121.366 128.154 2.028-.563a389 389 0 0 0 44.09-16.144 163 163 0 0 0 40.568-23.102 88.1 88.1 0 0 0 28.454-40.203A36 36 0 0 0 239.07 40c-19.721 26.934-97.899 29.723-97.899 29.723l18.453-16.904A257.86 257.86 0 0 0 10 101.277a140.86 140.86 0 0 1 79.277 35.442c10.593-3.268 21.383-5.635 32.06-8.452M244 125.506s-72.15-5.635-147.06 18.622a141.7 141.7 0 0 1 24.735 35.301c39.442-21.947 93.984-49.979 122.325-53.923M126.606 190.67a140.6 140.6 0 0 1 8.93 37.33l68.656-70.715z"/></g><defs><clipPath id="clip0_42_4"><path fill="#fff" d="M0 0h256v256H0z"/></clipPath></defs></svg>
